svg/tumblr-square.svg

<svg xmlns="http://www.w3.org/2000/svg" viewBox="0 0 64 64" enable-background="new 0 0 64 64"><style type="text/css">.st0{fill:#343434;}</style><path class="st0" d="M60 0h-56c-2.2 0-4 1.8-4 4v56c0 2.2 1.8 4 4 4h56c2.2 0 4-1.8 4-4v-56c0-2.2-1.8-4-4-4zm-23 56c-10.4 0-12.5-8-13-10v-16h-6v-8c5.5-2.7 9.6-7.8 11-14h6v14h9v8h-9v14c.3 2.2 1.5 3.8 4 4 2.6-.2 4-1.4 4.1-1.9l2.9 5.9s-2.6 4-9 4z"/></svg>

<?xml version="1.0" encoding="utf-8"?>
<!-- Generator: Adobe Illustrator 21.0.0, SVG Export Plug-In . SVG Version: 6.00 Build 0)  -->
<svg version="1.1" id="Layer_1" xmlns="http://www.w3.org/2000/svg" xmlns:xlink="http://www.w3.org/1999/xlink" x="0px" y="0px"
	 viewBox="0 0 64 64" style="enable-background:new 0 0 64 64;" xml:space="preserve">
<style type="text/css">
	.st0{fill:#343434;}
</style>
<path class="st0" d="M60,0H4C1.8,0,0,1.8,0,4v56c0,2.2,1.8,4,4,4h56c2.2,0,4-1.8,4-4V4C64,1.8,62.2,0,60,0z M37,56
	c-10.4,0-12.5-8-13-10V30h-6v-8c5.5-2.7,9.6-7.8,11-14h6v14h9v8h-9v14c0.3,2.2,1.5,3.8,4,4c2.6-0.2,4-1.4,4.1-1.9L46,52
	C46,52,43.4,56,37,56z"/>
</svg>
